X: 1
T: The Hay Makers  [G]
O:1753
B:Gow's Repository
B:RSCDS 2-11
B:James Oswald published this tune for the 1753 London pantomime Fortunatus in 1753
B:Miss Stewartâ€™s Collection of 1781
B:James Hulbertâ€™s Complete Fiferâ€™s Museum (Greenfield, Mass., 1807)
B:Howe "Complete Preceptor for the Accordeon", 1843; p.6
R:jig
Z:2007 John Chambers <jc:trillian.mit.edu>
M:6/8
L:1/8
K:G
   D "A" | "G"G2B "D"A2c |  "G"B2G "D7"AFD | "G"G2B "Am"A2c | "D7"BdB  "G"G2 :|\
|: d "B" | "G"B2d    g2d |  "C"ege  "G"dBG | "G"B2d     g2d |  "C"ege "D7"d2 :|
  yd "C" | "C"c2e "G"dBG | "D7"AGA  "G"B2G | "C"c2e  "G"dBG | "D7"AGA  "G"G3  \
         |"Am"c2e "G"dBG | "B7"AGA "Em"B2G | "C"c2e  "G"dBG | "D7"AGA  "G"G2 |]
%%center Book02/0211-Haymakers_JC.abc

%%sep 1 1 500
%%sep 1 1 500

